X:1
T:6 Lieder, Op.5
T:Ode
T:4. Ode
T:Peter Cornelius
T:August von Platen
T:6 Lieder, Op.5
T:Creative Commons copyright waiver (CC0 1.0 Universal) 
T:Creative Commons copyright waiver (CC0 1.0 Universal) 
T:Creative Commons copyright waiver (CC0 1.0 Universal) 
C:Peter Cornelius
Z:August von Platen
Z:Creative Commons copyright waiver (CC0 1.0 Universal)
Z:
L:1/8
M:6/8
K:Bb
V:1 treble nm="Voice" snm="Vo."
V:1
 z6 | z6 | z6 | z6 | z6 | z6 | z2 z GGG | G>AA AAA | A>=BB z2 z | z2 z _ddd | _d>cc z2 z | %11
w: ||||||Lan ge be-|gehr- ten wir ru- hig al-|lein zu sein,|lan- ge be-|gehr- ten wir's,|
 z2 z _AAG | c>^FF z2 z | z2 z =F=F=F | d>cB BcB | B>_AG z2 z | e3- e2 d | f3 A2 z | z2 G =BAG | %19
w: hät- ten er-|reicht es heut,|a- ber es|teilt mit uns die- se Ge-|nos- sen- schaft|Wein * und|Ju- gend,|ein feu- * rig|
 d6 | _G2 _A F=EF | B3 _E_GB | e2 _d B3 | z2 z ^FFF | d>^c=B GAG | ^F>=BB- B2 z | z2 z z d2- | %27
w: Paar.|Zar- te Me- lan- cho-|lie mäs- sigt den|Lie- bes- brand,|züch- ti- ger|Ro- se gleich mit- ten im|Nel- ken strauss, *|Lä-|
 dcA ^F2 A | c3 c=BA | =B2 G D2 z | =e2 d c=BA | _B3- B2 _A | G2 z z2 z | z6 | z2 z G>GG | %35
w: * chein ver- rät das|Mass in- ni- ger|Zärt- lich keit,|Küs- se fal- len wie|Ho- * nig-|tau.||Bren- nen- de|
 G>AA AAA | B2 z z2 B | _d3 dcB | _d2 c z2 z | z2 z z2 _G | FA=G FAc | e6- | e z z z2 z | %43
w: Seuf- zer, o sa- ge wa-|rum? wa|rum bren- nen- de|Bli- cke?|Sind's|Bo- ten viel- leicht * des|Glücks?||
 z2 z D^CD |[K:G] B3- B z B | ^c3- c z z | F>FF ^AGF | F3 B z z | B3- B2 c | d3 F2 z | z2 G GFE | %51
w: A- ber du|schweigst? * o|komm! *|scheu- che den drei- * sten|Mond, *|schliess' * den|La- den,|ge- lieb * tes|
 B3 A z z | z2 z z2 B | ^c3- c z z | z2 z z2 F | d6 | ^d3- d2 e | e3 =d z G | B3- B2 A | %59
w: Herz! *|o|komm! *|o|komm!|schliess' * den|La- den, ge|lieb- * tes|
 G3- G z z | z6 | z6 | z6 | z6 | z6 |] %65
w: Herz! *||||||

